X:8302
T:Jug of Punch, The
S:Boys of the Lough, Farewell and Remember Me
N:liner notes: "version of a Galway fiddle reel normally played in D minor". Transcribed by Alan Ng
D:Shanachie 79067
Z: id:ng-reels-10 transcribed by Alan Ng agng@students.wisc.edu January 28, 1996
E:11
M:C|
K:EDor
\bigskip
EFGA BAAA|BAAA BAFD|B,3 C DEFG|A2 BA FDB,A,|B,EEF GEEF|\
GEFE DEFA|defe dBAF|GBFB E4::Beef gage|fgfe dBBA|BFBc dcde|\
fgfe dBBA|Beef g2 ge|f2 fe dBBc|d2 dB c2 BA|GBFB E4:|**
\bigskip


